static/assets/template/assets/img/icons/essential/detailed/Crypto.svg

<svg height="150" viewBox="0 0 149 150" width="149" xmlns="http://www.w3.org/2000/svg"><g fill="none" fill-rule="evenodd" transform="translate(1 2)"><g transform="translate(34 33)"><circle cx="40" cy="40.4" fill-rule="nonzero" r="39.7"/><circle cx="42.1" cy="42.6" fill="#c4e0ff" fill-rule="nonzero" r="37.5"/><g stroke-linecap="round" stroke-linejoin="round" stroke-width="3"><path d="m8.1 41c0-.2 0-.4 0-.6 0-3.6.6-7.1 1.7-10.3"/><path d="m14.4 59.4c-2.3-3.1-4-6.5-5.1-10.3"/><path d="m20.7 65.8c-.7-.5-1.4-1.1-2-1.7"/><path d="m69.1 53.3c-3.4 7.8-9.9 14-18 17"/><path d="m48.9 9.9c10.7 3.1 19 11.6 21.9 22.4"/><path d="m71.9 16.8c4.9 6.6 7.8 14.8 7.8 23.6 0 21.9-17.8 39.7-39.7 39.7s-39.7-17.8-39.7-39.7c0-1 0-2 .1-3"/><path d="m1.5 30.6c4.4-17.1 19.9-29.8 38.4-29.8 8.4 0 16.3 2.6 22.7 7.1"/></g></g><g fill-rule="nonzero" transform="translate(58 47)"><path d="m18.6 50.8c-1.6 0-3.1-1-3.7-2.4-.6 1.4-2 2.4-3.7 2.4-2.2 0-4-1.8-4-4v-3.1c-2.8 0-4.9-2.2-4.9-5v-24.7c0-2.8 2.1-4.9 4.9-5v-3.1c0-2.2 1.8-4 4-4 1.6 0 3.1 1 3.7 2.4.6-1.4 2-2.4 3.7-2.4 2.2 0 4 1.8 4 4v3.6c2.1.5 3.8 1.4 5.1 2.8 1.7 1.7 2.6 3.9 2.6 6.4 0 2.7-.9 4.9-2.7 6.6 2.3 1.4 4.5 3.7 4.5 8 0 5.4-3.4 8.9-9.5 9.9v3.4c0 2.4-1.8 4.2-4 4.2zm.2-16.3c3.4 0 3.4-1.4 3.4-1.9 0-.6 0-2-3.6-2h-6.5v3.9zm-1.9-12.7c3.5 0 3.5-1.3 3.5-1.8s0-1.8-3.1-1.8h-5.4v3.7h5z"/><path d="m18.6 3.4c1.4 0 2.5 1.1 2.5 2.5v4.8c2.3.4 4.2 1.3 5.6 2.6 1.4 1.4 2.2 3.2 2.2 5.4v.1c0 3.6-1.9 5.6-4.2 6.8 3.7 1.4 5.9 3.5 5.9 7.8v.1c0 5.1-3.7 8-9.5 8.5v4.8c0 1.4-1.1 2.5-2.5 2.5s-2.5-1.1-2.5-2.5v-4.6h-2.3v4.6c0 1.4-1.1 2.5-2.5 2.5s-2.5-1.1-2.5-2.5v-4.6h-1.4c-1.9 0-3.5-1.5-3.5-3.5v-24.7c0-1.9 1.5-3.5 3.5-3.5h1.4v-4.6c0-1.4 1.1-2.5 2.5-2.5s2.5 1.1 2.5 2.5v4.6h2.3v-4.6c-.1-1.4 1.1-2.5 2.5-2.5zm-8.1 19.9h6.4c3.1 0 5-1 5-3.3v-.1c0-2.1-1.6-3.2-4.6-3.2h-6.9v6.6zm0 12.7h8.3c3.1 0 4.9-1.1 4.9-3.4v-.1c0-2.1-1.6-3.4-5.1-3.4h-8v6.9zm8.1-35.6c-1.4 0-2.7.5-3.7 1.4-1-.9-2.3-1.4-3.7-1.4-3.1 0-5.5 2.5-5.5 5.5v1.8c-2.8.7-4.9 3.3-4.9 6.3v24.6c0 3 2.1 5.6 4.9 6.3v1.8c0 3.1 2.5 5.5 5.5 5.5 1.4 0 2.7-.5 3.7-1.4 1 .9 2.3 1.4 3.7 1.4 3.1 0 5.5-2.5 5.5-5.5v-2.2c6-1.4 9.5-5.4 9.5-11.1v-.1c0-3.5-1.2-6.3-3.7-8.3 1.3-1.7 2-3.9 2-6.3v-.1c0-3-1-5.5-3-7.5-1.2-1.2-2.8-2.2-4.7-2.8v-2.4c-.1-3-2.6-5.5-5.6-5.5zm-5.1 19.2h3.9c.9 0 1.4.2 1.6.2v.1c-.2.1-.8.3-2 .3h-3.4v-.6zm0 12.4h5c1.4 0 2 .3 2.1.3v.1.1.1c-.2.1-.7.3-1.9.3h-5.3v-.9z"/></g><g stroke-linecap="round" stroke-linejoin="round" stroke-width="3"><path d="m73.5 119.6v12.3"/><path d="m73.5 13.4v12.2"/><path d="m70.3.9c.9-.5 2-.8 3.2-.8 3.6 0 6.6 3 6.6 6.6s-3 6.6-6.6 6.6-6.6-3-6.6-6.6c0-.3 0-.7.1-1"/><circle cx="73.5" cy="139.1" r="6.6"/><path d="m26.8 72.9h-12.4"/><path d="m132.9 72.9h-12.1"/><path d="m142.3 78.9c-.8.4-1.7.5-2.6.5-3.6 0-6.6-3-6.6-6.6s3-6.6 6.6-6.6c3.4 0 6.2 2.6 6.6 5.8"/><circle cx="7.3" cy="72.9" r="6.6"/><path d="m16.5 117.6v-17.7h14.7"/><path d="m16.5 27.8v17.4h11.8"/><circle cx="16.5" cy="21" r="6.6"/><path d="m16.5 118.1c3.6 0 6.6 3 6.6 6.6s-3 6.6-6.6 6.6-6.6-3-6.6-6.6c0-1 .2-2 .6-2.8"/><path d="m131.6 117.6v-17.7h-14.8"/><path d="m131.6 27.8v17.4h-11.9"/><circle cx="131.6" cy="21" r="6.6"/><circle cx="131.6" cy="124.7" r="6.6"/></g></g></svg>

<?xml version="1.0" encoding="UTF-8"?>
<svg width="149px" height="150px" viewBox="0 0 149 150" version="1.1" xmlns="http://www.w3.org/2000/svg" xmlns:xlink="http://www.w3.org/1999/xlink">
    <!-- Generator: Sketch 51.2 (57519) - http://www.bohemiancoding.com/sketch -->
    <title>Crypto</title>
    <desc>Created with Sketch.</desc>
    <defs></defs>
    <g id="Page-1" stroke="none" stroke-width="1" fill="none" fill-rule="evenodd">
        <g id="Crypto" transform="translate(1.000000, 2.000000)">
            <g id="Group" transform="translate(34.000000, 33.000000)">
                <circle id="Oval" class="fill-neutral" fill-rule="nonzero" cx="40" cy="40.4" r="39.7"></circle>
                <circle id="Oval" fill="#C4E0FF" fill-rule="nonzero" cx="42.1" cy="42.6" r="37.5"></circle>
                <path d="M8.1,41 C8.1,40.8 8.1,40.6 8.1,40.4 C8.1,36.8 8.7,33.3 9.8,30.1" id="Shape" class="stroke-primary-300" stroke-width="3" stroke-linecap="round" stroke-linejoin="round"></path>
                <path d="M14.4,59.4 C12.1,56.3 10.4,52.9 9.3,49.1" id="Shape" class="stroke-primary-300" stroke-width="3" stroke-linecap="round" stroke-linejoin="round"></path>
                <path d="M20.7,65.8 C20,65.3 19.3,64.7 18.7,64.1" id="Shape" class="stroke-primary-300" stroke-width="3" stroke-linecap="round" stroke-linejoin="round"></path>
                <path d="M69.1,53.3 C65.7,61.1 59.2,67.3 51.1,70.3" id="Shape" class="stroke-primary-300" stroke-width="3" stroke-linecap="round" stroke-linejoin="round"></path>
                <path d="M48.9,9.9 C59.6,13 67.9,21.5 70.8,32.3" id="Shape" class="stroke-primary-300" stroke-width="3" stroke-linecap="round" stroke-linejoin="round"></path>
                <path d="M71.9,16.8 C76.8,23.4 79.7,31.6 79.7,40.4 C79.7,62.3 61.9,80.1 40,80.1 C18.1,80.1 0.3,62.3 0.3,40.4 C0.3,39.4 0.3,38.4 0.4,37.4" id="Shape" class="stroke-primary" stroke-width="3" stroke-linecap="round" stroke-linejoin="round"></path>
                <path d="M1.5,30.6 C5.9,13.5 21.4,0.8 39.9,0.8 C48.3,0.8 56.2,3.4 62.6,7.9" id="Shape" class="stroke-primary" stroke-width="3" stroke-linecap="round" stroke-linejoin="round"></path>
            </g>
            <g id="Group" transform="translate(58.000000, 47.000000)" fill-rule="nonzero">
                <path d="M18.6,50.8 C17,50.8 15.5,49.8 14.9,48.4 C14.3,49.8 12.9,50.8 11.2,50.8 C9,50.8 7.2,49 7.2,46.8 L7.2,43.7 C4.4,43.7 2.3,41.5 2.3,38.7 L2.3,14 C2.3,11.2 4.4,9.1 7.2,9 L7.2,5.9 C7.2,3.7 9,1.9 11.2,1.9 C12.8,1.9 14.3,2.9 14.9,4.3 C15.5,2.9 16.9,1.9 18.6,1.9 C20.8,1.9 22.6,3.7 22.6,5.9 L22.6,9.5 C24.7,10 26.4,10.9 27.7,12.3 C29.4,14 30.3,16.2 30.3,18.7 C30.3,21.4 29.4,23.6 27.6,25.3 C29.9,26.7 32.1,29 32.1,33.3 C32.1,38.7 28.7,42.2 22.6,43.2 L22.6,46.6 C22.6,49 20.8,50.8 18.6,50.8 Z M18.8,34.5 C22.2,34.5 22.2,33.1 22.2,32.6 C22.2,32 22.2,30.6 18.6,30.6 L12.1,30.6 L12.1,34.5 L18.8,34.5 Z M16.9,21.8 C20.4,21.8 20.4,20.5 20.4,20 C20.4,19.5 20.4,18.2 17.3,18.2 L11.9,18.2 L11.9,21.9 L16.9,21.9 L16.9,21.8 Z" id="Shape" class="fill-neutral"></path>
                <path d="M18.6,3.4 C20,3.4 21.1,4.5 21.1,5.9 L21.1,10.7 C23.4,11.1 25.3,12 26.7,13.3 C28.1,14.7 28.9,16.5 28.9,18.7 L28.9,18.8 C28.9,22.4 27,24.4 24.7,25.6 C28.4,27 30.6,29.1 30.6,33.4 L30.6,33.5 C30.6,38.6 26.9,41.5 21.1,42 L21.1,46.8 C21.1,48.2 20,49.3 18.6,49.3 C17.2,49.3 16.1,48.2 16.1,46.8 L16.1,42.2 L13.8,42.2 L13.8,46.8 C13.8,48.2 12.7,49.3 11.3,49.3 C9.9,49.3 8.8,48.2 8.8,46.8 L8.8,42.2 L7.4,42.2 C5.5,42.2 3.9,40.7 3.9,38.7 L3.9,14 C3.9,12.1 5.4,10.5 7.4,10.5 L8.8,10.5 L8.8,5.9 C8.8,4.5 9.9,3.4 11.3,3.4 C12.7,3.4 13.8,4.5 13.8,5.9 L13.8,10.5 L16.1,10.5 L16.1,5.9 C16,4.5 17.2,3.4 18.6,3.4 Z M10.5,23.3 L16.9,23.3 C20,23.3 21.9,22.3 21.9,20 L21.9,19.9 C21.9,17.8 20.3,16.7 17.3,16.7 L10.4,16.7 L10.4,23.3 L10.5,23.3 Z M10.5,36 L18.8,36 C21.9,36 23.7,34.9 23.7,32.6 L23.7,32.5 C23.7,30.4 22.1,29.1 18.6,29.1 L10.6,29.1 L10.6,36 L10.5,36 Z M18.6,0.4 C17.2,0.4 15.9,0.9 14.9,1.8 C13.9,0.9 12.6,0.4 11.2,0.4 C8.1,0.4 5.7,2.9 5.7,5.9 L5.7,7.7 C2.9,8.4 0.8,11 0.8,14 L0.8,38.6 C0.8,41.6 2.9,44.2 5.7,44.9 L5.7,46.7 C5.7,49.8 8.2,52.2 11.2,52.2 C12.6,52.2 13.9,51.7 14.9,50.8 C15.9,51.7 17.2,52.2 18.6,52.2 C21.7,52.2 24.1,49.7 24.1,46.7 L24.1,44.5 C30.1,43.1 33.6,39.1 33.6,33.4 L33.6,33.3 C33.6,29.8 32.4,27 29.9,25 C31.2,23.3 31.9,21.1 31.9,18.7 L31.9,18.6 C31.9,15.6 30.9,13.1 28.9,11.1 C27.7,9.9 26.1,8.9 24.2,8.3 L24.2,5.9 C24.1,2.9 21.6,0.4 18.6,0.4 Z M13.5,19.6 L17.4,19.6 C18.3,19.6 18.8,19.8 19,19.8 C19,19.8 19,19.8 19,19.8 L19,19.9 C19,19.9 19,19.9 19,19.9 C18.8,20 18.2,20.2 17,20.2 L13.6,20.2 L13.6,19.6 L13.5,19.6 Z M13.5,32 L18.5,32 C19.9,32 20.5,32.3 20.6,32.3 C20.6,32.3 20.6,32.3 20.6,32.4 L20.6,32.5 C20.6,32.6 20.6,32.6 20.6,32.6 C20.4,32.7 19.9,32.9 18.7,32.9 L13.4,32.9 L13.4,32 L13.5,32 Z" id="Shape" class="fill-primary"></path>
            </g>
            <path d="M73.5,119.6 L73.5,131.9" id="Shape" class="stroke-primary" stroke-width="3" stroke-linecap="round" stroke-linejoin="round"></path>
            <path d="M73.5,13.4 L73.5,25.6" id="Shape" class="stroke-primary" stroke-width="3" stroke-linecap="round" stroke-linejoin="round"></path>
            <path d="M70.3,0.9 C71.2,0.4 72.3,0.1 73.5,0.1 C77.1,0.1 80.1,3.1 80.1,6.7 C80.1,10.3 77.1,13.3 73.5,13.3 C69.9,13.3 66.9,10.3 66.9,6.7 C66.9,6.4 66.9,6 67,5.7" id="Shape" class="stroke-primary" stroke-width="3" stroke-linecap="round" stroke-linejoin="round"></path>
            <circle id="Oval" class="stroke-primary" stroke-width="3" stroke-linecap="round" stroke-linejoin="round" cx="73.5" cy="139.1" r="6.6"></circle>
            <path d="M26.8,72.9 L14.4,72.9" id="Shape" class="stroke-primary" stroke-width="3" stroke-linecap="round" stroke-linejoin="round"></path>
            <path d="M132.9,72.9 L120.8,72.9" id="Shape" class="stroke-primary" stroke-width="3" stroke-linecap="round" stroke-linejoin="round"></path>
            <path d="M142.3,78.9 C141.5,79.3 140.6,79.4 139.7,79.4 C136.1,79.4 133.1,76.4 133.1,72.8 C133.1,69.2 136.1,66.2 139.7,66.2 C143.1,66.2 145.9,68.8 146.3,72" id="Shape" class="stroke-primary" stroke-width="3" stroke-linecap="round" stroke-linejoin="round"></path>
            <circle id="Oval" class="stroke-primary" stroke-width="3" stroke-linecap="round" stroke-linejoin="round" cx="7.3" cy="72.9" r="6.6"></circle>
            <polyline id="Shape" class="stroke-primary" stroke-width="3" stroke-linecap="round" stroke-linejoin="round" points="16.5 117.6 16.5 99.9 31.2 99.9"></polyline>
            <polyline id="Shape" class="stroke-primary" stroke-width="3" stroke-linecap="round" stroke-linejoin="round" points="16.5 27.8 16.5 45.2 28.3 45.2"></polyline>
            <circle id="Oval" class="stroke-primary" stroke-width="3" stroke-linecap="round" stroke-linejoin="round" cx="16.5" cy="21" r="6.6"></circle>
            <path d="M16.5,118.1 C20.1,118.1 23.1,121.1 23.1,124.7 C23.1,128.3 20.1,131.3 16.5,131.3 C12.9,131.3 9.9,128.3 9.9,124.7 C9.9,123.7 10.1,122.7 10.5,121.9" id="Shape" class="stroke-primary" stroke-width="3" stroke-linecap="round" stroke-linejoin="round"></path>
            <polyline id="Shape" class="stroke-primary" stroke-width="3" stroke-linecap="round" stroke-linejoin="round" points="131.6 117.6 131.6 99.9 116.8 99.9"></polyline>
            <polyline id="Shape" class="stroke-primary" stroke-width="3" stroke-linecap="round" stroke-linejoin="round" points="131.6 27.8 131.6 45.2 119.7 45.2"></polyline>
            <circle id="Oval" class="stroke-primary" stroke-width="3" stroke-linecap="round" stroke-linejoin="round" cx="131.6" cy="21" r="6.6"></circle>
            <circle id="Oval" class="stroke-primary" stroke-width="3" stroke-linecap="round" stroke-linejoin="round" cx="131.6" cy="124.7" r="6.6"></circle>
        </g>
    </g>
</svg>
